X:1
T:Die Welt ist so schön
T:Carl Ludwig Fischer
T:Die Welt ist so schön
T:CPDL - Creative Commons Attribution Non Commercial 3.0
T:CPDL - Creative Commons Attribution Non Commercial 3.0
T:CPDL - Creative Commons Attribution Non Commercial 3.0
T:CPDL - Creative Commons Attribution Non Commercial 3.0
T:CPDL - Creative Commons Attribution Non Commercial 3.0
C:Carl Ludwig Fischer
Z:CPDL - Creative Commons Attribution Non Commercial 3.0
%%score [ ( 1 2 ) ( 3 4 ) ]
L:1/8
Q:1/4=80
M:6/8
K:G
V:1 treble-8 nm="Tenor"
V:2 treble-8 
V:3 bass nm="Bass"
V:4 bass 
V:1
!p!"^Moderato" G | G2 G G2 G | !>!_B>AG !>!d2 d |!<(! d2 d!<)! d2!f! g | !fermata!f4 z || %5
w: Was|stehst du Mensch mit|düs- te- rem Sinn? die|Welt ist doch so|schön!|
!p![Q:1/4=90]"^Allegretto" G | BGB d2 d | %7
w: Der|Vo- * gel singt ein|
 e>[Q:1/4=84]"^ritard."d^c !fermata!d!fermata!g[Q:1/4=90]"^a tempo"!pp!e | %8
w: le- ben- des Lied, _ hell-|
 e z e[Q:1/4=88]"^rallent." ece |!f! gfe !fermata!d!fermata!b!mf!d | %10
w: klin- gend ge- gen den|Him- mel es zieht, * und|
[Q:1/4=90]"^a tempo" (^c3{/d} cB)c | a3 c2 c | (B3{/c} B^A)B | d3- d2!f! g | g3- g!p!fe | %15
w: se- * * lig|wir- belt er|in _ _ den|Höh'n, _ die|Welt _ ist so|
 d3-!<(! d^c!<)!d | e3- edc | B3- B2!f! g | a3- a!p!ge | d3- d!pp!^c[Q:1/4=88]"^ritard."d | %20
w: schön, _ ja, die|Welt _ ist so|schön, _ die|Welt _ ist so|schön, _ ja, die|
 f3- feF | !fermata!G3 z2 ||[Q:1/4=90]"^a tempo"!p! A | A3- Ade | f3 fed | e3 B z B | B3- B2 z | %27
w: Welt _ ist so|schön.|Der|Strahl _ _ des|Mor- gens * er-|we- cket die|Blum', _|
 e2 z e z e | e2 z ed^c | d^cd edB | A3- A2"^cresc." d | (f3{/g} fe)f | g3 d2!p! d | (f3{/g} fe)f | %34
w: sie schlie- ßet|auf dann * ihr|duf- * tend Hei- * lig-|tum, _ aus|vol- * * lem|Kel- che die|Düf- * * te|
!<(! g3- g2!<)! g |!>(! g3- g!>)!fe | d3-!<(! d^c!<)!d |!>(! e3- e!>)!d=c | B3- B2!f! g | a3- age | %40
w: weh'n, _ die|Welt _ ist so|schön, _ ja, die|Welt _ ist so|schön, _ die|Welt _ ist so|
 d3- d!pp![Q:1/4=88]"^ritard."^cd | f3- feF | !fermata!G3 z2 ||[Q:1/4=90]"^a tempo"!p! e | %44
w: schön, _ ja, die|Welt _ ist so|schön.|Im|
 e2 z e z e | e2 z =f z e | d2 z d^ce | d3 z2 d | d2 z d z d | d2 z e z d | c3{/d} cBA | G3 z2 G | %52
w: flüs- si- gen|Sil- ber, im|schim- mern- * den|Bach, eilt|flüch- tig die|Wel- le der|Wel- le _ so|nach, sie|
!<(! ^F3 FA!<)!c |!>(! e3 d2!>)! c |!p! B3{/c} BAB |!<(! d3- d2!<)!!f! g | g3- g!p!fe | %57
w: net- zen _ die|U- fer mit|sanf- tem _ Ge-|tön, _ die|Welt _ ist so|
 d3-!<(! d^c!<)!d | e3- ed=c | B3- B2!f! g | a3-!>(! ag!>)!e | d3- d!pp![Q:1/4=88]"^ritard."^cd | %62
w: schön, _ ja, die|Welt _ ist so|schön, _ die|Welt _ ist so|schön, _ ja, die|
 f3- feF | !fermata!G3 ||[M:4/4][Q:1/4=80]"^Moderato"!mf! _B2 | _B2 G_A B2 cd | %66
w: Welt _ ist so|schön.|Was|stehst du _ Mensch mit _|
[Q:1/4=76]"^ritard." _e2 e2 !fermata!e2[Q:1/4=80]"^a tempo" _B2 | _B2 G_A B2 cd | %68
w: düst'- rem Blick und|schaust in die fins- te- re|
 _e2[Q:1/4=76]"^ritard." e2 !fermata!e2 z[Q:1/4=80]"^a tempo" ^d | ^d2 dd d2 ^cd | e2 e2 ^d2 z =d | %71
w: Brust zu- rück. O|wol- le doch rings- um den|Ju- bel seh'n, o|
 d2!<(! dd!<)! d2[Q:1/4=72]"^ritard." Bd |!f! (g2 e) (3c/d/e/{/^c} d2 z!f! g || %73
w: wol- le doch rings- um die|Freu- * de _ _ seh'n, die|
[M:6/8][Q:1/4=90]"^a tempo" g3- g!p!fe | d3- d^cd | e3- edc | B3- B z!f! g | a3- age | %78
w: Welt _ ist so|schön, _ ja, die|Welt _ ist so|schön, _ die|Welt _ ist so|
 d3- d2!f! d ||[M:4/4][Q:1/4=80]"^Moderato" !>!d4 !>!e2 !>!f2 |"^<    >" !fermata!g8 |] %81
w: schön, _ die|Welt ist so|schön.|
V:2
 G | G2 G G2 G | _B>AG A2 d | d2 d d2 d | d4 x || G | G2 G B2 B | c>B^A Bd=c | c x c cGc | %9
w: |||||||||
 edc dgB | A3 A3 | =cdc A2 A | G3- GFG | B3- B2 d | e3- edc | B3- B^AB | c3- cBA | G3- G2 e | %18
w: |se- lig||||||||
 e3- eeG | G3- GGG | c3- ccc | B3 x2 || A | A3- A z A | A z z A z A | B2 z G x G | G2 z G z G | %27
w: ||||||||Blum' sie schließt|
 ^c2 x c x c | ^c2 x c z c | A z A B z B | A3- A2 d | =c3 c3 | B3 B2 B | d3 d3 | d3- d2 ^d | %35
w: auf, * *||||vol- lem|_ _ _|Düf- te|_ _ _|
 e3- edc | B3- B^AB | c3- cBA | G3- G2 e | e3- eeG | G3- GGG | c3- ccc | B3 x2 || G | c2 x cBc | %45
w: ||||||||||
 c2 x cBc | A2 x A z A | A3 A^GA | B2 x B^AB | B2 x B^AB | GFG A2 F | (GFG FG)E | D3 DFA | %53
w: ||* ei- * let||||||
 c3 A2 A | G3 GFG | B3- B2 ^d | e3- eec | B3- B^AB | =c3- cB=A | G3- G2 e | e3- eeG | G3- GGG | %62
w: |||||||||
 c3- ccc | B3 ||[M:4/4] G2 | G2 _E=F G2 G2 | c2 _c2 _B2 G2 | G2 _E=F G2 GG | c2 _c2 _B2 x =B | %69
w: |||||||
 B2 BB B2 ^AB | B2 B2 B2 x B | B2 BB B2 BB | (e2 c) (3c/B/c/{/^A} B2 x ^d ||[M:6/8] e3- e=dc | %74
w: |||||
 B3- B^AB | c3- cBA | G3- G x e | e3- eeG | G3- G2 B ||[M:4/4] d4 ^c2 =c2 | B8 |] %81
w: |||||||
V:3
!p! G, | G,2 G, G,2 G, | !>!_B,>A,G, !>!F,2 D |!<(! D2 D!<)! _B,2!f! B, | !fermata!A,4 z ||!p! G, | %6
 D,2 D, G,2 G, | G,>G,G, !fermata!G,!fermata!B,!pp!G, | G, z G, G,G,G, | %9
!f! CG,G, !fermata!G,!fermata!D!mf!G, | G,E,G, G,3 | F,3 F,2 F, | G,D,G, D,3 | G,3- G,2!f! B, | %14
 C3- C!p!CG, | G,3-!<(! G,G,!<)!G, | (F,3 A,)E,F, | G,3- G,2!f! G, | G,3- G,!p!A,^A, | %19
 B,3- B,!pp!^A,B, | =A,3- A,A,D, | !fermata!D,3 z2 ||!p! F, | F,3- F, z F, | F, z z F, z F, | %25
 G,2 z E, z E, | E,2 z E, z E, | G,2 z G, z G, | G,2 z G, z G, | F, z F, G, z G, | %30
 F,3- F,2"^cresc." D, | A,3 A,3 | G,3 G,2!p! G, | A,3 C3 |!<(! B,3- B,2!<)! B, |!>(! C3- C!>)!CG, | %36
 G,3-!<(! G,G,!<)!G, |!>(! (F,3 A,)!>)!E,F, | G,3- G,2!f! G, | G,3- G,A,^A, | B,3- B,!pp!^A,B, | %41
 =A,3- A,A,D, | !fermata!D,3 z2 ||!p! C, | G,^F,G, G, z G, | G,F,G, A, z G, | =F,E,G, F, z F, | %47
 =F,E,G, F, z F, | =F,E,F, F, z F, | =F,E,F, F, z F, | E,^D,E, =F,2 D, | (E,^D,E, D,E,)E, | %52
!<(! =D,3 D,2!<)! F, |!>(! A,3 F,2!>)! F, |!p! G,3 D,2 D, |!<(! G,3- G,2!<)!!f! B, | C3- C!p!CG, | %57
 G,3-!<(! G,G,!<)!G, | (F,3 A,)E,^F, | G,3- G,2!f! G, | G,3-!>(! G,A,!>)!^A, | =B,3- B,!pp!^A,B, | %62
 =A,3- A,A,D, | !fermata!D,3 ||[M:4/4]!mf! _E,2 | _E,2 E,2 E,2 E,2 | _A,2 A,2 !fermata!G,2 _E,2 | %67
 _E,2 E,E, E,2 E,E, | _A,2 A,2 !fermata!G,2 z ^F, | ^F,2 F,F, F,2 ^F,F, | ^G,2 =G,2 F,2 z G, | %71
 G,2!<(! G,G,!<)! G,2 G,G, |!f! C2- C (3E,/G,/C/ G,2 z!f! B, ||[M:6/8] C3- C!p!CG, | G,3- G,G,G, | %75
 (F,3 A,)E,F, | G,3- G, z!f! G, | G,3- G,A,^A, | B,3- B,2!f! G, ||[M:4/4] !>!F,4 !>!G,2 !>!A,2 | %80
"^<    >" !fermata!D,8 |] %81
V:4
 G, | G,2 G, G,2 G, | _B,>A,G, D,2 D | D2 D _B,2 G, | D,4 x || G, | G,,2 G,, G,2 G, | %7
 G,>G,G, G,B,C, | C, x C, C,C,C, | CC,C, G,,G,G,, | A,,3 A,,3 | D,3 D,2 D, | G,,3 G,,3 | %13
 G,3- G,2 G, | C,3- C,C,C, | D,3- D,D,D, | D,3- D,D,^D, | E,3- E,2 E, | C,3- C,C,^C, | %19
 D,3- D,D,D, | D,3- D,D,D, | G,,3 x2 || D, | D,3- D, x D, | D, x x D, x D, | G,,2 x G,, x G,, | %26
 G,,2 x G,, x G,, | A,,2 x A,, x A,, | A,,2 x A,, x A,, | D, x D, D, x D, | D,3- D,2 D, | D,3 D,3 | %32
 G,3 G,2 G, | D,3 D,3 | G,3- G,2 G, | C,3- C,C,C, | D,3- D,D,D, | D,3- D,D,^D, | E,3- E,2 E, | %39
 C,3- C,C,^C, | D,3- D,D,D, | D,3- D,D,D, | G,,3 x2 || C, | C,2 z C, x C, | C,2 z C, x C, | %46
 =F,,2 z F,, x F,, | =F,,2 z F,, x F,, | G,,2 z G,, x G,, | G,,2 z G,, x G,, | C,3 C,2 C, | %51
 C,3 z2 C, | D,3 D,2 D, | D,3 D,2 D, | G,3 G,,2 G,, | G,3- G,2 G, | C,3- C,C,C, | D,3- D,D,D, | %58
 D,3- D,D,^D, | E,3- E,2 E, | C,3- C,C,^C, | D,3- D,D,D, | D,3- D,D,D, | G,,3 ||[M:4/4] _E,2 | %65
 _E,2 E,2 E,2 E,2 | _E,2 _A,,_C, E,2 E,2 | _E,2 E,E, E,2 E,E, | _E,2 (3_A,,_C,A,, E,2 x B,, | %69
 B,,2 B,,B,, B,,2 F,B,, | E,2 E,2 B,,2 x G, | G,2 G,G, G,2 G,G, | C2- CC, G,2 x G, || %73
[M:6/8] C,3- C,C,C, | D,3- D,D,D, | D,3- D,D,^D, | E,3- E, x E, | C,3- C,C,^C, | D,3- D,2 D, || %79
[M:4/4] D,4 D,2 D,2 | G,,8 |] %81

